;FLAVOR:Marlin
;TIME:3981
;Filament used: 3.39958m
;Layer height: 0.2
;MINX:86.132
;MINY:86.143
;MINZ:0.2
;MAXX:163.498
;MAXY:133.474
;MAXZ:40
;Generated with Cura_SteamEngine 5.0.0
M140 S75
M105
M190 S75
M104 S200
M105
M109 S200
M82 ;absolute extrusion mode
M201 X500.00 Y500.00 Z100.00 E5000.00 ;Setup machine max acceleration
M203 X500.00 Y500.00 Z10.00 E50.00 ;Setup machine max feedrate
M204 P500.00 R1000.00 T500.00 ;Setup Print/Retract/Travel acceleration
M205 X8.00 Y8.00 Z0.40 E5.00 ;Setup Jerk
M220 S100 ;Reset Feedrate
M221 S100 ;Reset Flowrate

G28 ;Home

G92 E0 ;Reset Extruder
G1 Z2.0 F3000 ;Move Z Axis up
G1 X10.1 Y20 Z0.28 F5000.0 ;Move to start position
G1 X10.1 Y200.0 Z0.28 F1500.0 E15 ;Draw the first line
G1 X10.4 Y200.0 Z0.28 F5000.0 ;Move to side a little
G1 X10.4 Y20 Z0.28 F1500.0 E30 ;Draw the second line
G92 E0 ;Reset Extruder
G1 Z2.0 F3000 ;Move Z Axis up

G92 E0
G92 E0
G1 F2700 E-5
;LAYER_COUNT:200
;LAYER:0
M107
G0 F6000 X92.619 Y90.887 Z0.2
G0 X88.233 Y101.346
;TYPE:SKIRT
G1 F2700 E0
G1 F1200 X88.318 Y100.309 E0.03461
G1 X88.414 Y99.5 E0.0617
G1 X88.491 Y99.01 E0.0782
G1 X88.741 Y97.839 E0.11803
G1 X88.869 Y97.367 E0.13429
G1 X89.214 Y96.311 E0.17124
G1 X89.368 Y95.909 E0.18556
G1 X89.828 Y94.871 E0.22332
G1 X90.051 Y94.431 E0.23973
G1 X90.659 Y93.381 E0.28008
G1 X90.926 Y92.973 E0.2963
G1 X91.597 Y92.055 E0.33412
G1 X91.876 Y91.712 E0.34883
G1 X92.619 Y90.887 E0.38575
G1 X92.948 Y90.557 E0.40125
G1 X93.808 Y89.781 E0.43978
G1 X94.163 Y89.493 E0.45498
G1 X95.052 Y88.843 E0.49161
G1 X95.475 Y88.565 E0.50845
G1 X96.588 Y87.923 E0.55118
G1 X97.023 Y87.705 E0.56737
G1 X98.042 Y87.257 E0.60439
G1 X98.455 Y87.1 E0.61908
G1 X99.515 Y86.757 E0.65614
G1 X99.97 Y86.635 E0.67181
G1 X101.118 Y86.392 E0.71084
G1 X101.578 Y86.32 E0.72632
G1 X102.698 Y86.203 E0.76378
G1 X103.171 Y86.178 E0.77953
G1 X104.176 Y86.171 E0.81296
G1 X105.428 Y86.221 E0.85463
G1 X106.231 Y86.264 E0.88138
G1 X108.737 Y86.329 E0.96476
G1 X111.26 Y86.322 E1.04867
G1 X113.824 Y86.243 E1.13399
G1 X115.335 Y86.163 E1.18432
G1 X115.85 Y86.143 E1.20146
G1 X116.834 Y86.149 E1.23419
G1 X117.307 Y86.173 E1.24994
G1 X118.112 Y86.244 E1.27682
G1 X118.605 Y86.305 E1.29334
G1 X121.221 Y86.594 E1.38088
G1 X123.716 Y86.797 E1.46414
G1 X126.245 Y86.931 E1.54837
G1 X128.77 Y86.993 E1.63238
G1 X131.293 Y86.984 E1.71629
G1 X133.756 Y86.906 E1.79826
G1 X137.203 Y86.683 E1.91314
G1 X138.833 Y86.554 E1.96753
G1 X139.346 Y86.529 E1.98461
G1 X140.349 Y86.526 E2.01797
G1 X141.406 Y86.571 E2.05316
G1 X142.302 Y86.634 E2.08303
G1 X143.296 Y86.756 E2.11634
G1 X144.689 Y86.998 E2.16337
G1 X145.195 Y87.101 E2.18054
G1 X146.185 Y87.351 E2.2145
G1 X147.576 Y87.778 E2.2629
G1 X148.032 Y87.933 E2.27892
G1 X148.96 Y88.296 E2.31206
G1 X149.961 Y88.741 E2.34849
G1 X150.721 Y89.104 E2.37651
G1 X151.616 Y89.591 E2.4104
G1 X152.889 Y90.37 E2.46003
G1 X153.3 Y90.64 E2.47639
G1 X154.077 Y91.201 E2.50827
G1 X154.904 Y91.854 E2.54331
G1 X155.61 Y92.446 E2.57396
G1 X156.337 Y93.123 E2.607
G1 X157.354 Y94.171 E2.65557
G1 X157.677 Y94.524 E2.67148
G1 X158.318 Y95.292 E2.70475
G1 X159.177 Y96.432 E2.75223
G1 X159.473 Y96.85 E2.76927
G1 X160.025 Y97.712 E2.80331
G1 X160.736 Y98.956 E2.85097
G1 X160.964 Y99.382 E2.86704
G1 X161.407 Y100.313 E2.90133
G1 X161.959 Y101.642 E2.94919
G1 X162.134 Y102.1 E2.9655
G1 X162.455 Y103.072 E2.99955
G1 X162.836 Y104.463 E3.04752
G1 X162.955 Y104.953 E3.06429
G1 X163.148 Y105.945 E3.0979
G1 X163.351 Y107.365 E3.14561
G1 X163.408 Y107.872 E3.16258
G1 X163.475 Y108.875 E3.19601
G1 X163.498 Y110.331 E3.24445
G1 X163.491 Y110.817 E3.26061
G1 X163.431 Y111.817 E3.29393
G1 X163.271 Y113.266 E3.34242
G1 X163.204 Y113.746 E3.35854
G1 X163.016 Y114.753 E3.39261
G1 X162.681 Y116.142 E3.44013
G1 X162.548 Y116.63 E3.45696
G1 X162.242 Y117.58 E3.49015
G1 X161.707 Y118.996 E3.5405
G1 X161.531 Y119.42 E3.55577
G1 X161.117 Y120.303 E3.5882
G1 X160.611 Y121.27 E3.6245
G1 X160.179 Y122.042 E3.65393
G1 X159.652 Y122.873 E3.68666
G1 X158.812 Y124.067 E3.73521
G1 X158.525 Y124.451 E3.75116
G1 X157.87 Y125.247 E3.78544
G1 X156.88 Y126.332 E3.83429
G1 X156.536 Y126.687 E3.85074
G1 X155.804 Y127.376 E3.88417
G1 X154.712 Y128.306 E3.93188
G1 X154.327 Y128.615 E3.9483
G1 X153.512 Y129.209 E3.98184
G1 X152.317 Y129.993 E4.02938
G1 X151.892 Y130.254 E4.04596
G1 X151.015 Y130.739 E4.0793
G1 X150.041 Y131.221 E4.11544
G1 X149.235 Y131.592 E4.14495
G1 X148.328 Y131.953 E4.17742
G1 X147.316 Y132.305 E4.21306
G1 X146.452 Y132.578 E4.2432
G1 X145.503 Y132.824 E4.2758
G1 X144.449 Y133.047 E4.31163
G1 X143.591 Y133.204 E4.34065
G1 X142.605 Y133.332 E4.37372
G1 X141.529 Y133.422 E4.40963
G1 X140.652 Y133.471 E4.43884
G1 X139.65 Y133.474 E4.47217
G1 X138.594 Y133.429 E4.50732
G1 X137.698 Y133.366 E4.5372
G1 X136.709 Y133.245 E4.57034
G1 X135.297 Y133 E4.618
G1 X133.616 Y132.655 E4.67508
G1 X131.081 Y132.172 E4.76091
G1 X128.581 Y131.769 E4.84513
G1 X126.129 Y131.444 E4.9274
G1 X123.591 Y131.182 E5.01226
G1 X121.095 Y130.994 E5.09552
G1 X118.565 Y130.875 E5.17976
G1 X116.048 Y130.829 E5.26349
G1 X113.553 Y130.853 E5.34648
G1 X111.041 Y130.948 E5.43008
G1 X108.51 Y131.117 E5.51445
G1 X106.026 Y131.353 E5.59744
G1 X104.402 Y131.557 E5.65188
G1 X103.14 Y131.698 E5.69412
G1 X102.349 Y131.758 E5.7205
G1 X102.042 Y131.77 E5.73072
G1 X101.038 Y131.763 E5.76411
G1 X100.579 Y131.739 E5.7794
G1 X99.479 Y131.626 E5.81618
G1 X99.018 Y131.555 E5.83169
G1 X97.911 Y131.326 E5.86929
G1 X97.448 Y131.205 E5.88521
G1 X96.297 Y130.835 E5.92542
G1 X95.858 Y130.667 E5.94106
G1 X94.822 Y130.208 E5.97874
G1 X94.415 Y130.002 E5.99392
G1 X93.399 Y129.418 E6.03289
G1 X92.964 Y129.136 E6.05013
G1 X92.005 Y128.438 E6.08959
G1 X91.656 Y128.154 E6.10455
G1 X90.833 Y127.412 E6.14141
G1 X90.508 Y127.088 E6.15667
G1 X89.724 Y126.219 E6.1956
G1 X89.414 Y125.836 E6.21199
G1 X88.741 Y124.909 E6.25009
G1 X88.496 Y124.532 E6.26504
G1 X87.903 Y123.503 E6.30454
G1 X87.685 Y123.072 E6.32061
G1 X87.227 Y122.037 E6.35825
G1 X87.061 Y121.603 E6.37371
G1 X86.705 Y120.503 E6.41216
G1 X86.582 Y120.041 E6.42806
G1 X86.344 Y118.911 E6.46647
G1 X86.273 Y118.457 E6.48175
G1 X86.157 Y117.343 E6.51901
G1 X86.132 Y116.874 E6.53463
G1 X86.132 Y115.704 E6.57354
G1 X86.157 Y115.234 E6.5892
G1 X86.276 Y114.102 E6.62705
G1 X86.433 Y113.17 E6.65849
G1 X86.653 Y112.081 E6.69544
G1 X86.804 Y111.378 E6.71936
G1 X87.27 Y108.875 E6.80404
G1 X87.658 Y106.407 E6.88713
G1 X87.975 Y103.94 E6.96986
G1 X88.233 Y101.346 E7.05656
G1 F2700 E2.05656
G0 F6000 X88.05 Y106.488
G1 F2700 E7.05656
G1 F1200 X88.375 Y103.959 E7.14137
G1 X88.627 Y101.424 E7.2261
G1 X88.716 Y100.341 E7.26224
G1 X88.81 Y99.562 E7.28834
G1 X88.887 Y99.072 E7.30483
G1 X89.128 Y97.944 E7.3432
G1 X89.256 Y97.472 E7.35946
G1 X89.587 Y96.454 E7.39507
G1 X89.741 Y96.052 E7.40939
G1 X90.185 Y95.052 E7.44578
G1 X90.408 Y94.612 E7.46218
G1 X90.993 Y93.6 E7.50106
G1 X91.26 Y93.192 E7.51728
G1 X91.907 Y92.307 E7.55374
G1 X92.186 Y91.964 E7.56845
G1 X92.902 Y91.169 E7.60403
G1 X93.231 Y90.839 E7.61953
G1 X94.06 Y90.091 E7.65667
G1 X94.415 Y89.803 E7.67187
G1 X95.271 Y89.177 E7.70714
G1 X95.694 Y88.899 E7.72398
G1 X96.767 Y88.28 E7.76518
G1 X97.202 Y88.062 E7.78136
G1 X98.184 Y87.631 E7.81703
G1 X98.597 Y87.474 E7.83173
G1 X99.619 Y87.144 E7.86745
G1 X100.074 Y87.022 E7.88312
G1 X101.18 Y86.788 E7.92072
G1 X101.64 Y86.716 E7.9362
G1 X102.72 Y86.603 E7.97232
G1 X103.193 Y86.578 E7.98807
G1 X104.161 Y86.571 E8.02027
G1 X105.407 Y86.62 E8.06174
G1 X106.236 Y86.664 E8.08936
G1 X108.728 Y86.729 E8.17227
G1 X111.273 Y86.722 E8.25692
G1 X113.814 Y86.644 E8.34147
G1 X115.351 Y86.563 E8.39266
G1 X115.866 Y86.543 E8.4098
G1 X116.814 Y86.549 E8.44133
G1 X117.287 Y86.573 E8.45709
G1 X118.063 Y86.641 E8.483
G1 X118.579 Y86.705 E8.50029
G1 X121.185 Y86.993 E8.58749
G1 X123.696 Y87.197 E8.67128
G1 X126.215 Y87.33 E8.75518
G1 X128.762 Y87.393 E8.83992
G1 X131.272 Y87.385 E8.92341
G1 X133.794 Y87.304 E9.00733
G1 X137.26 Y87.08 E9.12285
G1 X138.852 Y86.954 E9.17597
G1 X139.365 Y86.929 E9.19305
G1 X140.332 Y86.926 E9.22521
G1 X141.753 Y86.992 E9.27253
G1 X142.272 Y87.032 E9.28984
G1 X143.229 Y87.15 E9.32191
G1 X144.609 Y87.39 E9.3685
G1 X145.115 Y87.493 E9.38567
G1 X146.069 Y87.734 E9.4184
G1 X147.447 Y88.157 E9.46634
G1 X147.903 Y88.312 E9.48236
G1 X148.798 Y88.662 E9.51433
G1 X150.125 Y89.258 E9.56271
G1 X150.547 Y89.463 E9.57831
G1 X151.409 Y89.933 E9.61097
G1 X152.343 Y90.499 E9.64729
G1 X153.08 Y90.975 E9.67647
G1 X153.829 Y91.515 E9.70718
G1 X154.656 Y92.168 E9.74223
G1 X155.351 Y92.75 E9.77238
G1 X156.051 Y93.403 E9.80422
G1 X157.059 Y94.441 E9.85234
G1 X157.382 Y94.794 E9.86826
G1 X158 Y95.534 E9.90033
G1 X158.851 Y96.663 E9.94735
G1 X159.147 Y97.081 E9.96438
G1 X159.679 Y97.912 E9.9972
G1 X160.384 Y99.145 E10.04444
G1 X160.612 Y99.571 E10.06051
G1 X161.039 Y100.468 E10.09356
G1 X161.586 Y101.785 E10.14099
G1 X161.761 Y102.243 E10.15729
G1 X162.07 Y103.179 E10.19008
G1 X162.448 Y104.557 E10.2376
G1 X162.567 Y105.047 E10.25438
G1 X162.753 Y106.004 E10.2868
G1 X162.954 Y107.41 E10.33404
G1 X163.011 Y107.917 E10.35101
G1 X163.075 Y108.884 E10.38324
G1 X163.098 Y110.326 E10.43121
G1 X163.091 Y110.812 E10.44738
G1 X163.033 Y111.775 E10.47946
G1 X162.875 Y113.21 E10.52748
G1 X162.808 Y113.69 E10.5436
G1 X162.626 Y114.661 E10.57646
G1 X162.295 Y116.037 E10.62353
G1 X162.162 Y116.525 E10.64035
G1 X161.868 Y117.44 E10.67232
G1 X161.48 Y118.481 E10.70927
G1 X161.161 Y119.267 E10.73748
G1 X160.763 Y120.117 E10.7687
G1 X160.066 Y121.434 E10.81826
G1 X159.832 Y121.843 E10.83393
G1 X159.324 Y122.644 E10.86548
G1 X158.492 Y123.828 E10.91361
G1 X158.205 Y124.212 E10.92955
G1 X157.573 Y124.979 E10.96261
G1 X156.592 Y126.053 E11.01099
G1 X156.248 Y126.408 E11.02743
G1 X155.543 Y127.072 E11.05964
G1 X154.462 Y127.994 E11.1069
G1 X154.077 Y128.303 E11.12332
G1 X153.292 Y128.876 E11.15564
G1 X152.108 Y129.652 E11.20272
G1 X151.683 Y129.913 E11.21931
G1 X150.837 Y130.38 E11.25145
G1 X149.519 Y131.025 E11.30026
G1 X149.071 Y131.227 E11.3166
G1 X148.196 Y131.576 E11.34794
G1 X147.184 Y131.928 E11.38357
G1 X146.334 Y132.196 E11.41322
G1 X145.42 Y132.432 E11.44461
G1 X144.006 Y132.725 E11.49264
G1 X143.522 Y132.81 E11.50899
G1 X142.572 Y132.933 E11.54085
G1 X141.126 Y133.048 E11.58909
G1 X140.632 Y133.072 E11.60554
G1 X139.667 Y133.074 E11.63764
G1 X138.247 Y133.008 E11.68492
G1 X137.728 Y132.968 E11.70223
G1 X136.776 Y132.851 E11.73413
G1 X135.378 Y132.608 E11.78133
G1 X133.706 Y132.265 E11.8381
G1 X131.154 Y131.779 E11.9245
G1 X128.656 Y131.376 E12.00866
G1 X126.156 Y131.045 E12.09254
G1 X123.625 Y130.783 E12.17717
G1 X121.108 Y130.594 E12.26112
G1 X118.591 Y130.475 E12.34493
G1 X116.051 Y130.429 E12.42942
G1 X113.534 Y130.454 E12.51314
G1 X111.036 Y130.548 E12.59629
G1 X108.48 Y130.718 E12.68149
G1 X105.968 Y130.957 E12.76541
G1 X104.358 Y131.159 E12.81938
G1 X103.096 Y131.3 E12.86162
G1 X102.333 Y131.358 E12.88707
G1 X102.026 Y131.37 E12.89729
G1 X101.059 Y131.364 E12.92945
G1 X100.6 Y131.34 E12.94474
G1 X99.539 Y131.23 E12.98022
G1 X99.078 Y131.159 E12.99573
G1 X98.012 Y130.939 E13.03193
G1 X97.549 Y130.818 E13.04785
G1 X96.44 Y130.462 E13.08659
G1 X96.001 Y130.294 E13.10222
G1 X95.003 Y129.852 E13.13853
G1 X94.596 Y129.646 E13.1537
G1 X93.617 Y129.083 E13.19126
G1 X93.182 Y128.801 E13.2085
G1 X92.258 Y128.128 E13.24652
G1 X91.909 Y127.844 E13.26149
G1 X91.115 Y127.129 E13.29703
G1 X90.79 Y126.805 E13.31229
G1 X90.035 Y125.967 E13.3498
G1 X89.725 Y125.584 E13.36619
G1 X89.076 Y124.691 E13.40291
G1 X88.831 Y124.314 E13.41786
G1 X88.26 Y123.322 E13.45593
G1 X88.042 Y122.891 E13.472
G1 X87.6 Y121.894 E13.50827
G1 X87.434 Y121.46 E13.52373
G1 X87.092 Y120.4 E13.56077
G1 X86.969 Y119.938 E13.57667
G1 X86.739 Y118.849 E13.61369
G1 X86.668 Y118.395 E13.62898
G1 X86.556 Y117.321 E13.66489
G1 X86.531 Y116.852 E13.68051
G1 X86.531 Y115.725 E13.718
G1 X86.556 Y115.255 E13.73365
G1 X86.671 Y114.165 E13.77011
G1 X86.825 Y113.249 E13.801
G1 X87.044 Y112.166 E13.83775
G1 X87.194 Y111.471 E13.8614
G1 X87.661 Y108.961 E13.94631
G1 X88.05 Y106.488 E14.02958
G1 F2700 E9.02958
G0 F6000 X86.93 Y115.746
G1 F2700 E14.02958
G1 F1200 X86.955 Y115.276 E14.04523
G1 X87.066 Y114.227 E14.08032
G1 X87.217 Y113.328 E14.11063
G1 X87.435 Y112.25 E14.14722
G1 X87.584 Y111.557 E14.17079
G1 X88.056 Y109.025 E14.25646
G1 X88.448 Y106.53 E14.34046
G1 X88.771 Y104.017 E14.42473
G1 X89.028 Y101.434 E14.51106
G1 X89.115 Y100.374 E14.54644
G1 X89.205 Y99.625 E14.57153
G1 X89.282 Y99.135 E14.58803
G1 X89.514 Y98.048 E14.62499
G1 X89.642 Y97.576 E14.64126
G1 X89.961 Y96.597 E14.67551
G1 X90.115 Y96.195 E14.68983
G1 X90.542 Y95.233 E14.72483
G1 X90.765 Y94.793 E14.74124
G1 X91.328 Y93.819 E14.77866
G1 X91.595 Y93.411 E14.79487
G1 X92.217 Y92.56 E14.82993
G1 X92.496 Y92.217 E14.84464
G1 X93.186 Y91.451 E14.87893
G1 X93.515 Y91.121 E14.89443
G1 X94.312 Y90.402 E14.93013
G1 X94.667 Y90.114 E14.94533
G1 X95.491 Y89.511 E14.97929
G1 X95.914 Y89.233 E14.99613
G1 X96.946 Y88.638 E15.03575
G1 X97.381 Y88.42 E15.05193
G1 X98.327 Y88.005 E15.08629
G1 X98.74 Y87.848 E15.10099
G1 X99.722 Y87.53 E15.13532
G1 X100.177 Y87.408 E15.15099
G1 X101.242 Y87.183 E15.18719
G1 X101.702 Y87.111 E15.20268
G1 X102.741 Y87.002 E15.23742
G1 X103.214 Y86.977 E15.25318
G1 X104.145 Y86.971 E15.28414
G1 X105.386 Y87.02 E15.32545
G1 X106.169 Y87.062 E15.35153
G1 X108.754 Y87.129 E15.43754
G1 X111.286 Y87.122 E15.52175
G1 X113.849 Y87.043 E15.60704
G1 X115.366 Y86.963 E15.65756
G1 X115.881 Y86.943 E15.67471
G1 X116.794 Y86.948 E15.70507
G1 X117.267 Y86.972 E15.72083
G1 X118.013 Y87.038 E15.74573
G1 X118.484 Y87.097 E15.76152
G1 X121.141 Y87.39 E15.85043
G1 X123.679 Y87.596 E15.93512
G1 X126.219 Y87.731 E16.01972
G1 X128.753 Y87.793 E16.10403
G1 X131.286 Y87.785 E16.18828
G1 X133.804 Y87.704 E16.27207
G1 X137.264 Y87.481 E16.38739
G1 X138.872 Y87.353 E16.44104
G1 X139.385 Y87.328 E16.45812
G1 X140.315 Y87.325 E16.48905
G1 X141.722 Y87.391 E16.5359
G1 X142.241 Y87.431 E16.55322
G1 X143.162 Y87.545 E16.58408
G1 X144.53 Y87.782 E16.63026
G1 X145.036 Y87.885 E16.64743
G1 X145.954 Y88.117 E16.67893
G1 X147.319 Y88.536 E16.72642
G1 X147.775 Y88.691 E16.74244
G1 X148.635 Y89.028 E16.77316
G1 X149.95 Y89.618 E16.8211
G1 X150.372 Y89.823 E16.8367
G1 X151.201 Y90.275 E16.8681
G1 X152.449 Y91.039 E16.91677
G1 X152.86 Y91.309 E16.93313
G1 X153.581 Y91.829 E16.9627
G1 X154.701 Y92.722 E17.01034
G1 X155.092 Y93.055 E17.02742
G1 X155.765 Y93.683 E17.05804
G1 X156.764 Y94.711 E17.10571
G1 X157.087 Y95.064 E17.12163
G1 X157.681 Y95.776 E17.15247
G1 X158.524 Y96.894 E17.19904
G1 X158.82 Y97.312 E17.21607
G1 X159.332 Y98.112 E17.24767
G1 X160.031 Y99.334 E17.29449
G1 X160.259 Y99.76 E17.31056
G1 X160.67 Y100.622 E17.34232
G1 X161.212 Y101.927 E17.38932
G1 X161.387 Y102.385 E17.40563
G1 X161.684 Y103.287 E17.43721
G1 X162.059 Y104.652 E17.4843
G1 X162.178 Y105.142 E17.50107
G1 X162.357 Y106.062 E17.53224
G1 X162.556 Y107.454 E17.57901
G1 X162.613 Y107.961 E17.59598
G1 X162.675 Y108.892 E17.62701
G1 X162.698 Y110.32 E17.67451
G1 X162.691 Y110.806 E17.69068
G1 X162.635 Y111.733 E17.72157
G1 X162.479 Y113.155 E17.76915
G1 X162.412 Y113.635 E17.78527
G1 X162.237 Y114.569 E17.81687
G1 X161.909 Y115.932 E17.8635
G1 X161.776 Y116.42 E17.88032
G1 X161.493 Y117.3 E17.91107
G1 X161.105 Y118.341 E17.94802
G1 X160.792 Y119.113 E17.97573
G1 X160.408 Y119.932 E18.00581
G1 X159.902 Y120.899 E18.04211
G1 X159.484 Y121.644 E18.07052
G1 X158.996 Y122.415 E18.10087
G1 X158.171 Y123.588 E18.14857
G1 X157.884 Y123.972 E18.16451
G1 X157.277 Y124.711 E18.19632
G1 X156.305 Y125.775 E18.24425
G1 X155.961 Y126.13 E18.2607
G1 X155.283 Y126.769 E18.29168
G1 X154.211 Y127.682 E18.33852
G1 X153.826 Y127.991 E18.35494
G1 X153.071 Y128.542 E18.38602
G1 X151.899 Y129.311 E18.43265
G1 X151.474 Y129.572 E18.44924
G1 X150.66 Y130.022 E18.48017
G1 X149.686 Y130.504 E18.51632
G1 X148.907 Y130.862 E18.54483
G1 X148.065 Y131.198 E18.57498
G1 X146.693 Y131.668 E18.62322
G1 X146.217 Y131.814 E18.63978
G1 X145.337 Y132.041 E18.67001
G1 X143.936 Y132.331 E18.71759
G1 X143.452 Y132.416 E18.73394
G1 X142.538 Y132.535 E18.76459
