;FLAVOR:Marlin
;TIME:8623
;Filament used: 8.77111m
;Layer height: 0.2
;MINX:66.5
;MINY:67.518
;MINZ:0.2
;MAXX:153.5
;MAXY:152.482
;MAXZ:38
;Generated with Cura_SteamEngine 5.0.0
M140 S80
M105
M190 S80
M104 S200
M105
M109 S200
M82 ;absolute extrusion mode
M201 X500.00 Y500.00 Z100.00 E5000.00 ;Setup machine max acceleration
M203 X500.00 Y500.00 Z10.00 E50.00 ;Setup machine max feedrate
M204 P500.00 R1000.00 T500.00 ;Setup Print/Retract/Travel acceleration
M205 X8.00 Y8.00 Z0.40 E5.00 ;Setup Jerk
M220 S100 ;Reset Feedrate
M221 S100 ;Reset Flowrate

G28 ;Home

G92 E0 ;Reset Extruder
G1 Z2.0 F3000 ;Move Z Axis up
G1 X10.1 Y20 Z0.28 F5000.0 ;Move to start position
G1 X10.1 Y200.0 Z0.28 F1500.0 E15 ;Draw the first line
G1 X10.4 Y200.0 Z0.28 F5000.0 ;Move to side a little
G1 X10.4 Y20 Z0.28 F1500.0 E30 ;Draw the second line
G92 E0 ;Reset Extruder
G1 Z2.0 F3000 ;Move Z Axis up

G92 E0
G92 E0
G1 F2700 E-5
;LAYER_COUNT:190
;LAYER:0
M107
G0 F6000 X70.399 Y89.597 Z0.2
G0 X66.501 Y98.491
;TYPE:SKIRT
G1 F2700 E0
G1 F1200 X66.511 Y97.825 E0.02215
G1 X66.565 Y96.889 E0.05334
G1 X66.699 Y95.96 E0.08456
G1 X66.911 Y95.047 E0.11573
G1 X67.2 Y94.155 E0.14692
G1 X67.565 Y93.29 E0.17814
G1 X68.001 Y92.46 E0.20933
G1 X68.507 Y91.67 E0.24053
G1 X69.078 Y90.926 E0.27172
G1 X69.71 Y90.234 E0.30289
G1 X70.399 Y89.597 E0.3341
G1 X71.14 Y89.022 E0.3653
G1 X71.927 Y88.512 E0.39649
G1 X72.665 Y88.115 E0.42436
G1 X73.263 Y87.823 E0.4465
G1 X74.799 Y87.102 E0.50293
G1 X77.022 Y85.979 E0.58577
G1 X79.282 Y84.757 E0.67122
G1 X81.43 Y83.516 E0.75373
G1 X83.551 Y82.209 E0.83659
G1 X85.692 Y80.805 E0.92175
G1 X87.742 Y79.375 E1.00488
G1 X89.776 Y77.871 E1.08902
G1 X91.751 Y76.321 E1.17252
G1 X93.732 Y74.673 E1.25823
G1 X95.67 Y72.973 E1.34397
G1 X96.147 Y72.574 E1.36465
G1 X97.069 Y71.849 E1.40367
G1 X97.651 Y71.41 E1.42791
G1 X98.423 Y70.878 E1.4591
G1 X98.951 Y70.566 E1.47949
G1 X100.064 Y69.954 E1.52174
G1 X100.695 Y69.625 E1.54541
G1 X101.545 Y69.227 E1.57662
G1 X102 Y69.049 E1.59287
G1 X102.894 Y68.728 E1.62447
G1 X103.975 Y68.37 E1.66234
G1 X104.877 Y68.113 E1.69354
G1 X105.427 Y67.997 E1.71223
G1 X106.289 Y67.841 E1.74137
G1 X107.433 Y67.661 E1.77989
G1 X108.365 Y67.555 E1.81108
G1 X109.046 Y67.527 E1.83375
G1 X110.063 Y67.518 E1.86758
G1 X111.046 Y67.53 E1.90028
G1 X111.982 Y67.585 E1.93146
G1 X112.5 Y67.649 E1.94882
G1 X113.358 Y67.781 E1.9777
G1 X114.499 Y67.983 E2.01624
G1 X115.414 Y68.186 E2.04741
G1 X115.983 Y68.354 E2.06714
G1 X116.816 Y68.629 E2.09632
G1 X117.876 Y69.003 E2.1337
G1 X118.746 Y69.352 E2.16488
G1 X119.36 Y69.653 E2.18763
G1 X120.479 Y70.249 E2.22979
G1 X121.131 Y70.615 E2.25466
G1 X121.929 Y71.108 E2.28586
G1 X122.357 Y71.414 E2.30336
G1 X123.02 Y71.917 E2.33104
G1 X123.934 Y72.641 E2.36982
G1 X124.354 Y72.992 E2.38803
G1 X126.542 Y74.91 E2.4848
G1 X128.485 Y76.513 E2.56858
G1 X130.47 Y78.059 E2.65226
G1 X132.526 Y79.569 E2.73711
G1 X134.57 Y80.982 E2.81975
G1 X136.697 Y82.367 E2.90417
G1 X138.821 Y83.665 E2.98697
G1 X141.007 Y84.917 E3.07075
G1 X143.215 Y86.101 E3.15408
G1 X146.501 Y87.721 E3.27594
G1 X147.159 Y88.029 E3.3001
G1 X147.991 Y88.462 E3.3313
G1 X148.782 Y88.966 E3.36249
G1 X149.528 Y89.534 E3.39368
G1 X150.223 Y90.164 E3.42488
G1 X150.861 Y90.851 E3.45606
G1 X151.439 Y91.59 E3.48726
G1 X151.951 Y92.376 E3.51846
G1 X152.395 Y93.202 E3.54965
G1 X152.767 Y94.063 E3.58085
G1 X153.064 Y94.953 E3.61206
G1 X153.284 Y95.864 E3.64323
G1 X153.426 Y96.791 E3.67442
G1 X153.487 Y97.683 E3.70416
G1 X153.5 Y98.312 E3.72508
G1 X153.498 Y119.469 E4.42877
G1 X153.484 Y120.192 E4.45282
G1 X153.426 Y121.128 E4.48401
G1 X153.288 Y122.056 E4.51521
G1 X153.072 Y122.968 E4.54639
G1 X152.779 Y123.859 E4.57758
G1 X152.411 Y124.722 E4.60879
G1 X151.971 Y125.55 E4.63997
G1 X151.462 Y126.338 E4.67117
G1 X150.888 Y127.079 E4.70235
G1 X150.252 Y127.769 E4.73356
G1 X149.56 Y128.402 E4.76475
G1 X149.019 Y128.829 E4.78768
G1 X146.595 Y130.619 E4.8879
G1 X144.616 Y132.171 E4.97155
G1 X142.679 Y133.783 E5.05536
G1 X140.784 Y135.453 E5.13937
G1 X138.943 Y137.169 E5.22308
G1 X137.169 Y138.918 E5.30594
G1 X135.407 Y140.759 E5.3907
G1 X133.717 Y142.625 E5.47443
G1 X132.105 Y144.513 E5.557
G1 X130.508 Y146.491 E5.64155
G1 X129.555 Y147.742 E5.69386
G1 X129.14 Y148.27 E5.7162
G1 X128.53 Y148.982 E5.74738
G1 X127.861 Y149.64 E5.77859
G1 X127.139 Y150.238 E5.80977
G1 X126.368 Y150.772 E5.84097
G1 X125.554 Y151.239 E5.87218
G1 X124.704 Y151.635 E5.90337
G1 X123.823 Y151.957 E5.93457
G1 X122.918 Y152.202 E5.96575
G1 X121.995 Y152.37 E5.99695
G1 X120.799 Y152.469 E6.03687
G1 X120.17 Y152.482 E6.05779
G1 X100.05 Y152.481 E6.72699
G1 X99.349 Y152.471 E6.7503
G1 X98.413 Y152.418 E6.78149
G1 X97.484 Y152.285 E6.8127
G1 X96.571 Y152.073 E6.84387
G1 X95.678 Y151.785 E6.87508
G1 X94.814 Y151.421 E6.90626
G1 X93.983 Y150.985 E6.93748
G1 X93.193 Y150.48 E6.96866
G1 X92.449 Y149.91 E6.99984
G1 X91.756 Y149.278 E7.03103
G1 X91.119 Y148.589 E7.06224
G1 X90.765 Y148.15 E7.081
G1 X90.268 Y147.499 E7.10824
G1 X88.668 Y145.461 E7.19442
G1 X87.05 Y143.517 E7.27854
G1 X85.38 Y141.622 E7.36255
G1 X83.665 Y139.782 E7.44621
G1 X81.918 Y138.011 E7.52895
G1 X80.073 Y136.246 E7.61387
G1 X78.207 Y134.556 E7.69761
G1 X76.307 Y132.934 E7.78069
G1 X74.352 Y131.356 E7.86426
G1 X72.341 Y129.826 E7.9483
G1 X71.821 Y129.45 E7.96964
G1 X70.95 Y128.803 E8.00573
G1 X70.221 Y128.212 E8.03695
G1 X69.546 Y127.562 E8.06811
G1 X68.928 Y126.856 E8.09932
G1 X68.373 Y126.1 E8.13051
G1 X67.885 Y125.299 E8.16171
G1 X67.466 Y124.46 E8.1929
G1 X67.12 Y123.588 E8.2241
G1 X66.85 Y122.69 E8.25529
G1 X66.657 Y121.772 E8.28649
G1 X66.543 Y120.841 E8.31769
G1 X66.513 Y120.281 E8.33634
G1 X66.5 Y119.652 E8.35727
G1 X66.501 Y98.491 E9.06108
G0 F6000 X66.901 Y98.497
G1 F1200 X66.911 Y97.831 E9.08324
G1 X66.965 Y96.912 E9.11386
G1 X67.098 Y96.001 E9.14448
G1 X67.31 Y95.105 E9.1751
G1 X67.599 Y94.231 E9.20572
G1 X67.963 Y93.385 E9.23635
G1 X68.398 Y92.574 E9.26696
G1 X68.903 Y91.804 E9.29759
G1 X69.472 Y91.08 E9.32821
G1 X70.102 Y90.409 E9.35883
G1 X70.788 Y89.794 E9.38947
G1 X71.524 Y89.242 E9.42007
G1 X72.306 Y88.756 E9.45069
G1 X72.841 Y88.474 E9.47081
G1 X73.433 Y88.185 E9.49272
G1 X74.97 Y87.463 E9.5492
G1 X77.214 Y86.33 E9.63281
G1 X79.466 Y85.113 E9.71795
G1 X81.634 Y83.86 E9.80123
G1 X83.801 Y82.524 E9.8859
G1 X85.895 Y81.151 E9.96919
G1 X87.987 Y79.692 E10.05402
G1 X90.015 Y78.192 E10.13791
G1 X92.009 Y76.628 E10.2222
G1 X93.966 Y74.999 E10.30689
G1 X95.935 Y73.272 E10.394
G1 X96.395 Y72.888 E10.41393
G1 X97.31 Y72.168 E10.45266
G1 X97.892 Y71.729 E10.4769
G1 X98.65 Y71.208 E10.5075
G1 X99.144 Y70.916 E10.52658
G1 X100.249 Y70.309 E10.56851
G1 X100.88 Y69.98 E10.59218
G1 X102.138 Y69.425 E10.63791
G1 X103.02 Y69.107 E10.6691
G1 X104.101 Y68.749 E10.70697
G1 X104.986 Y68.498 E10.73757
G1 X105.5 Y68.39 E10.75504
G1 X106.351 Y68.236 E10.7838
G1 X107.495 Y68.056 E10.82232
G1 X108.41 Y67.952 E10.85295
G1 X109.049 Y67.927 E10.87422
G1 X110.066 Y67.918 E10.90805
G1 X111.04 Y67.93 E10.94044
G1 X111.959 Y67.984 E10.97106
G1 X112.441 Y68.045 E10.98722
G1 X113.288 Y68.175 E11.01572
G1 X114.429 Y68.377 E11.05426
G1 X115.328 Y68.577 E11.08489
G1 X115.859 Y68.735 E11.10332
G1 X116.683 Y69.006 E11.13217
G1 X117.743 Y69.38 E11.16956
G1 X118.597 Y69.724 E11.20018
G1 X119.173 Y70.006 E11.22151
G1 X120.284 Y70.598 E11.26338
G1 X120.936 Y70.964 E11.28825
G1 X121.718 Y71.449 E11.31885
G1 X122.116 Y71.734 E11.33514
G1 X122.772 Y72.231 E11.36251
G1 X123.686 Y72.955 E11.40129
G1 X124.091 Y73.292 E11.41882
G1 X126.31 Y75.237 E11.51696
G1 X128.226 Y76.817 E11.59956
G1 X130.233 Y78.381 E11.68419
G1 X132.291 Y79.893 E11.76912
G1 X134.362 Y81.325 E11.85287
G1 X136.46 Y82.69 E11.93612
G1 X138.635 Y84.02 E12.02091
G1 X140.825 Y85.274 E12.10485
G1 X143.005 Y86.443 E12.18712
G1 X146.353 Y88.093 E12.31126
G1 X146.989 Y88.391 E12.33462
G1 X147.805 Y88.817 E12.36524
G1 X148.581 Y89.313 E12.39587
G1 X149.311 Y89.874 E12.42649
G1 X149.989 Y90.497 E12.45712
G1 X150.611 Y91.176 E12.48774
G1 X151.172 Y91.906 E12.51837
G1 X151.667 Y92.682 E12.54898
G1 X152.093 Y93.498 E12.5796
G1 X152.446 Y94.348 E12.61021
G1 X152.725 Y95.226 E12.64085
G1 X152.926 Y96.124 E12.67146
G1 X153.048 Y97.037 E12.70209
G1 X153.087 Y97.694 E12.72398
G1 X153.1 Y98.312 E12.74454
G1 X153.098 Y119.461 E13.44796
G1 X153.084 Y120.184 E13.47201
G1 X153.026 Y121.103 E13.50264
G1 X152.889 Y122.013 E13.53325
G1 X152.673 Y122.908 E13.56387
G1 X152.381 Y123.781 E13.59449
G1 X152.013 Y124.626 E13.62514
G1 X151.574 Y125.435 E13.65576
G1 X151.066 Y126.203 E13.68638
G1 X150.494 Y126.924 E13.71699
G1 X149.861 Y127.593 E13.74762
G1 X149.173 Y128.204 E13.77823
G1 X148.781 Y128.507 E13.79471
G1 X146.355 Y130.298 E13.895
G1 X144.355 Y131.867 E13.97955
G1 X142.425 Y133.474 E14.06308
G1 X140.51 Y135.161 E14.14796
G1 X138.691 Y136.857 E14.23068
G1 X136.866 Y138.656 E14.31592
G1 X135.122 Y140.477 E14.39978
G1 X133.416 Y142.362 E14.48434
G1 X131.806 Y144.247 E14.56679
G1 X130.194 Y146.243 E14.65212
G1 X129.241 Y147.495 E14.70446
G1 X128.826 Y148.023 E14.72679
G1 X128.226 Y148.722 E14.75743
G1 X127.568 Y149.366 E14.78805
G1 X126.856 Y149.95 E14.81868
G1 X126.097 Y150.47 E14.84928
G1 X125.295 Y150.922 E14.8799
G1 X124.457 Y151.304 E14.91053
G1 X123.589 Y151.61 E14.94115
G1 X122.698 Y151.841 E14.97176
G1 X121.79 Y151.993 E15.00238
G1 X120.788 Y152.069 E15.0358
G1 X120.17 Y152.082 E15.05636
G1 X100.056 Y152.081 E15.72536
G1 X99.355 Y152.071 E15.74867
G1 X98.436 Y152.018 E15.77929
G1 X97.525 Y151.885 E15.80991
G1 X96.629 Y151.674 E15.84053
G1 X95.754 Y151.386 E15.87117
G1 X94.908 Y151.023 E15.90179
G1 X94.097 Y150.588 E15.93239
G1 X93.326 Y150.084 E15.96303
G1 X92.602 Y149.515 E15.99366
G1 X91.93 Y148.886 E16.02427
G1 X91.083 Y147.907 E16.06733
G1 X90.624 Y147.306 E16.09248
G1 X88.957 Y145.182 E16.18229
G1 X87.359 Y143.263 E16.26534
G1 X85.672 Y141.348 E16.35023
G1 X83.96 Y139.511 E16.43375
G1 X82.196 Y137.724 E16.51726
G1 X80.355 Y135.961 E16.60204
G1 X78.47 Y134.255 E16.6866
G1 X76.573 Y132.634 E16.76959
G1 X74.6 Y131.042 E16.85391
G1 X72.571 Y129.498 E16.93872
G1 X72.059 Y129.129 E16.95971
G1 X71.188 Y128.482 E16.9958
G1 X70.474 Y127.902 E17.02639
G1 X69.812 Y127.261 E17.05704
G1 X69.209 Y126.566 E17.08764
G1 X68.668 Y125.821 E17.11827
G1 X68.194 Y125.032 E17.14888
G1 X67.79 Y124.204 E17.17952
G1 X67.46 Y123.345 E17.21013
G1 X67.205 Y122.46 E17.24076
G1 X67.028 Y121.557 E17.27137
G1 X66.913 Y120.27 E17.31434
G1 X66.9 Y119.652 E17.3349
G1 X66.901 Y98.497 E18.03852
G0 F6000 X67.301 Y98.503
G1 F1200 X67.311 Y97.837 E18.06067
G1 X67.365 Y96.935 E18.09073
G1 X67.498 Y96.042 E18.12076
G1 X67.709 Y95.164 E18.15079
G1 X67.998 Y94.308 E18.18084
G1 X68.361 Y93.481 E18.21088
G1 X68.795 Y92.69 E18.24089
G1 X69.298 Y91.94 E18.27092
G1 X69.866 Y91.237 E18.30098
G1 X70.493 Y90.587 E18.33102
G1 X71.175 Y89.996 E18.36104
G1 X71.907 Y89.467 E18.39108
G1 X73.017 Y88.833 E18.43359
G1 X73.603 Y88.547 E18.45528
G1 X75.141 Y87.825 E18.51179
G1 X77.405 Y86.682 E18.59614
G1 X79.65 Y85.468 E18.68103
G1 X81.864 Y84.189 E18.76607
G1 X84.008 Y82.867 E18.84985
G1 X86.114 Y81.487 E18.93359
G1 X88.232 Y80.009 E19.0195
G1 X90.254 Y78.513 E19.10315
G1 X92.245 Y76.952 E19.1873
G1 X94.224 Y75.304 E19.27296
G1 X96.201 Y73.572 E19.36038
G1 X96.643 Y73.202 E19.37955
G1 X97.551 Y72.488 E19.41797
G1 X98.133 Y72.049 E19.44221
G1 X98.877 Y71.537 E19.47225
G1 X99.338 Y71.266 E19.49004
G1 X100.434 Y70.664 E19.53163
G1 X101.065 Y70.335 E19.5553
G1 X102.275 Y69.8 E19.5993
G1 X103.145 Y69.487 E19.63005
G1 X104.226 Y69.129 E19.66793
G1 X105.095 Y68.883 E19.69797
G1 X105.573 Y68.783 E19.71421
G1 X106.414 Y68.631 E19.74263
G1 X107.558 Y68.451 E19.78115
G1 X108.455 Y68.35 E19.81117
G1 X109.053 Y68.327 E19.83108
G1 X110.316 Y68.319 E19.87309
G1 X111.033 Y68.33 E19.89694
G1 X112.382 Y68.441 E19.94196
G1 X113.218 Y68.569 E19.97009
G1 X114.359 Y68.771 E20.00863
G1 X115.241 Y68.968 E20.03869
G1 X115.736 Y69.115 E20.05586
G1 X116.55 Y69.383 E20.08436
G1 X117.61 Y69.757 E20.12175
G1 X118.447 Y70.095 E20.15177
G1 X118.986 Y70.36 E20.17175
G1 X120.088 Y70.947 E20.21328
G1 X120.74 Y71.313 E20.23815
G1 X121.507 Y71.789 E20.26817
G1 X121.876 Y72.054 E20.28328
G1 X122.523 Y72.545 E20.31029
G1 X123.437 Y73.269 E20.34908
G1 X123.827 Y73.593 E20.36594
G1 X126.037 Y75.53 E20.46368
G1 X127.993 Y77.143 E20.54801
G1 X129.996 Y78.704 E20.63247
G1 X132.049 Y80.212 E20.71719
G1 X134.122 Y81.645 E20.80101
G1 X136.254 Y83.033 E20.88562
G1 X138.418 Y84.356 E20.96998
G1 X140.632 Y85.624 E21.05484
G1 X142.841 Y86.808 E21.1382
G1 X146.146 Y88.437 E21.26076
G1 X146.82 Y88.753 E21.28551
G1 X147.62 Y89.172 E21.31555
G1 X148.379 Y89.66 E21.34556
G1 X149.093 Y90.214 E21.37562
G1 X149.755 Y90.828 E21.40565
G1 X150.36 Y91.499 E21.4357
G1 X150.903 Y92.22 E21.46572
G1 X151.38 Y92.987 E21.49576
G1 X151.788 Y93.793 E21.52581
G1 X152.123 Y94.632 E21.55586
G1 X152.382 Y95.497 E21.58589
G1 X152.564 Y96.381 E21.61591
G1 X152.687 Y97.705 E21.66013
G1 X152.7 Y98.312 E21.68033
G1 X152.698 Y119.453 E22.38348
G1 X152.684 Y120.176 E22.40753
G1 X152.627 Y121.078 E22.43759
G1 X152.49 Y121.97 E22.46761
G1 X152.274 Y122.847 E22.49765
G1 X151.982 Y123.702 E22.5277
G1 X151.616 Y124.527 E22.55772
G1 X151.178 Y125.317 E22.58776
G1 X150.671 Y126.065 E22.61782
G1 X150.101 Y126.765 E22.64784
G1 X149.471 Y127.412 E22.67788
G1 X148.544 Y128.185 E22.71802
G1 X146.1 Y129.989 E22.81906
G1 X144.119 Y131.543 E22.9028
G1 X142.168 Y133.168 E22.98725
G1 X140.237 Y134.869 E23.07284
G1 X138.403 Y136.579 E23.15624
G1 X136.595 Y138.36 E23.24065
G1 X134.819 Y140.216 E23.32609
G1 X133.131 Y142.081 E23.40975
G1 X131.459 Y144.038 E23.49537
G1 X129.892 Y145.979 E23.57834
G1 X128.926 Y147.248 E23.63138
G1 X128.511 Y147.776 E23.65372
G1 X127.922 Y148.461 E23.68376
G1 X127.275 Y149.091 E23.7138
G1 X126.575 Y149.661 E23.74383
G1 X125.827 Y150.167 E23.77386
G1 X125.037 Y150.604 E23.80389
G1 X124.211 Y150.971 E23.83395
G1 X123.357 Y151.262 E23.86396
G1 X122.48 Y151.477 E23.89399
G1 X121.587 Y151.614 E23.92404
G1 X120.777 Y151.669 E23.95104
G1 X120.17 Y151.682 E23.97124
G1 X100.062 Y151.681 E24.64003
G1 X99.361 Y151.671 E24.66335
G1 X98.459 Y151.618 E24.6934
G1 X97.566 Y151.486 E24.72343
G1 X96.687 Y151.275 E24.75349
G1 X95.831 Y150.987 E24.78353
G1 X95.004 Y150.625 E24.81356
G1 X94.212 Y150.191 E24.8436
G1 X93.462 Y149.688 E24.87363
G1 X92.759 Y149.121 E24.90367
G1 X92.109 Y148.495 E24.93368
G1 X91.401 Y147.665 E24.96997
G1 X90.901 Y147.011 E24.99735
G1 X89.28 Y144.946 E25.08467
G1 X87.665 Y143.006 E25.16862
G1 X85.964 Y141.075 E25.25421
G1 X84.238 Y139.223 E25.33841
G1 X82.492 Y137.454 E25.42108
G1 X80.616 Y135.658 E25.50746
G1 X78.751 Y133.97 E25.59113
G1 X76.82 Y132.321 E25.67559
G1 X74.81 Y130.698 E25.76151
G1 X72.841 Y129.2 E25.8438
G1 X72.298 Y128.808 E25.86607
G1 X71.427 Y128.161 E25.90216
G1 X70.726 Y127.591 E25.93221
G1 X70.079 Y126.961 E25.96225
G1 X69.49 Y126.277 E25.99227
G1 X68.964 Y125.543 E26.0223
G1 X68.505 Y124.765 E26.05235
G1 X68.116 Y123.95 E26.08239
G1 X67.801 Y123.103 E26.11244
G1 X67.562 Y122.232 E26.14248
G1 X67.402 Y121.344 E26.17249
G1 X67.313 Y120.259 E26.2087
G1 X67.3 Y119.652 E26.22889
G1 X67.301 Y98.503 E26.93231
G1 F2700 E21.93231
G0 F6000 X105.514 Y78.756
G0 X107.259 Y78.157
G0 X109.078 Y77.854
G0 X110.922 Y77.854
G0 X112.741 Y78.157
G0 X114.486 Y78.756
G0 X116.107 Y79.634
G0 X117.563 Y80.767
G0 X118.812 Y82.124
G0 X119.72 Y83.513
G0 X128.335 Y101.782
G0 X128.8 Y101.782
G1 F2700 E26.93231
G1 F1200 X131.2 Y101.782 E27.01214
G1 X131.2 Y116.182 E27.49108
G1 X128.8 Y116.182 E27.57091
G1 X128.8 Y101.782 E28.04985
G0 F6000 X128.4 Y101.382
G1 F1200 X131.6 Y101.382 E28.15629
G1 X131.6 Y116.582 E28.66184
G1 X128.4 Y116.582 E28.76827
G1 X128.4 Y101.382 E29.27383
G0 F6000 X128 Y100.982
G1 F1200 X132 Y100.982 E29.40687
G1 X132 Y116.982 E29.93903
G1 X128 Y116.982 E30.07207
G1 X128 Y100.982 E30.60423
G0 F6000 X127.6 Y100.582
G1 F1200 X132.4 Y100.582 E30.76388
G1 X132.4 Y117.382 E31.32265
G1 X127.6 Y117.382 E31.4823
G1 X127.6 Y100.582 E32.04107
G0 F6000 X127.2 Y100.182
G1 F1200 X132.8 Y100.182 E32.22733
G1 X132.8 Y117.782 E32.8127
G1 X127.2 Y117.782 E32.99896
G1 X127.2 Y100.182 E33.58434
