;FLAVOR:Marlin
;TIME:31984
;Filament used: 40.4948m
;Layer height: 0.2
;MINX:72.588
;MINY:75.58
;MINZ:0.2
;MAXX:170.354
;MAXY:173.346
;MAXZ:118
;Generated with Cura_SteamEngine 5.0.0
M140 S80
M105
M190 S80
M104 S200
M105
M109 S200
M82 ;absolute extrusion mode
M201 X500.00 Y500.00 Z100.00 E5000.00 ;Setup machine max acceleration
M203 X500.00 Y500.00 Z10.00 E50.00 ;Setup machine max feedrate
M204 P500.00 R1000.00 T500.00 ;Setup Print/Retract/Travel acceleration
M205 X8.00 Y8.00 Z0.40 E5.00 ;Setup Jerk
M220 S100 ;Reset Feedrate
M221 S100 ;Reset Flowrate

G28 ;Home

G92 E0 ;Reset Extruder
G1 Z2.0 F3000 ;Move Z Axis up
G1 X10.1 Y20 Z0.28 F5000.0 ;Move to start position
G1 X10.1 Y200.0 Z0.28 F1500.0 E15 ;Draw the first line
G1 X10.4 Y200.0 Z0.28 F5000.0 ;Move to side a little
G1 X10.4 Y20 Z0.28 F1500.0 E30 ;Draw the second line
G92 E0 ;Reset Extruder
G1 Z2.0 F3000 ;Move Z Axis up

G92 E0
G92 E0
G1 F2700 E-5
;LAYER_COUNT:590
;LAYER:0
M107
G0 F6000 X75.011 Y77.729 Z0.2
G0 X72.588 Y83.38
;TYPE:SKIRT
G1 F2700 E0
G1 F1200 X72.628 Y82.591 E0.02628
G1 X72.747 Y81.811 E0.05252
G1 X72.945 Y81.046 E0.0788
G1 X73.219 Y80.306 E0.10505
G1 X73.567 Y79.597 E0.13132
G1 X73.985 Y78.926 E0.15761
G1 X74.468 Y78.302 E0.18385
G1 X75.011 Y77.729 E0.21011
G1 X75.61 Y77.214 E0.23638
G1 X76.258 Y76.763 E0.26264
G1 X76.949 Y76.379 E0.28894
G1 X77.674 Y76.067 E0.31519
G1 X78.427 Y75.83 E0.34144
G1 X79.201 Y75.671 E0.36773
G1 X79.986 Y75.59 E0.39397
G1 X80.388 Y75.58 E0.40735
G1 X99.034 Y75.58 E1.02752
G1 X99.737 Y75.616 E1.05093
G1 X99.986 Y75.59 E1.05926
G1 X100.388 Y75.58 E1.07263
G1 X162.554 Y75.58 E3.14028
G1 X163.343 Y75.62 E3.16656
G1 X164.123 Y75.739 E3.1928
G1 X164.888 Y75.937 E3.21908
G1 X165.628 Y76.211 E3.24533
G1 X166.337 Y76.559 E3.2716
G1 X167.008 Y76.977 E3.29789
G1 X167.632 Y77.46 E3.32413
G1 X168.205 Y78.003 E3.35039
G1 X168.72 Y78.602 E3.37666
G1 X169.171 Y79.25 E3.40292
G1 X169.555 Y79.941 E3.42922
G1 X169.867 Y80.666 E3.45547
G1 X170.104 Y81.419 E3.48172
G1 X170.263 Y82.193 E3.50801
G1 X170.344 Y82.978 E3.53425
G1 X170.354 Y83.38 E3.54763
G1 X170.354 Y145.546 E5.61528
G1 X170.318 Y146.25 E5.63872
G1 X170.344 Y146.499 E5.64705
G1 X170.354 Y146.901 E5.66042
G1 X170.354 Y165.546 E6.28056
G1 X170.314 Y166.335 E6.30684
G1 X170.195 Y167.115 E6.33308
G1 X169.997 Y167.88 E6.35936
G1 X169.723 Y168.62 E6.38561
G1 X169.375 Y169.329 E6.41188
G1 X168.957 Y170 E6.43817
G1 X168.474 Y170.624 E6.46441
G1 X167.931 Y171.197 E6.49067
G1 X167.332 Y171.712 E6.51694
G1 X166.684 Y172.163 E6.5432
G1 X165.993 Y172.547 E6.5695
G1 X165.268 Y172.859 E6.59575
G1 X164.515 Y173.096 E6.622
G1 X163.741 Y173.255 E6.64829
G1 X162.956 Y173.336 E6.67453
G1 X162.554 Y173.346 E6.68791
G1 X155.554 Y173.346 E6.92073
G1 X154.765 Y173.306 E6.947
G1 X153.985 Y173.187 E6.97325
G1 X153.22 Y172.989 E6.99953
G1 X152.48 Y172.715 E7.02578
G1 X151.771 Y172.367 E7.05204
G1 X151.1 Y171.949 E7.07834
G1 X150.476 Y171.466 E7.10458
G1 X149.903 Y170.923 E7.13084
G1 X149.388 Y170.324 E7.15711
G1 X148.937 Y169.676 E7.18337
G1 X148.553 Y168.985 E7.20967
G1 X148.241 Y168.26 E7.23592
G1 X148.004 Y167.507 E7.26217
G1 X147.845 Y166.733 E7.28845
G1 X147.764 Y165.948 E7.3147
G1 X147.754 Y165.546 E7.32808
G1 X147.754 Y153.346 E7.73385
G1 X100.388 Y153.346 E9.30925
G1 X99.599 Y153.306 E9.33553
G1 X98.819 Y153.187 E9.36177
G1 X98.054 Y152.989 E9.38805
G1 X97.314 Y152.715 E9.4143
G1 X96.605 Y152.367 E9.44057
G1 X95.934 Y151.949 E9.46686
G1 X95.31 Y151.466 E9.49311
G1 X94.737 Y150.923 E9.51936
G1 X94.222 Y150.324 E9.54564
G1 X93.771 Y149.676 E9.57189
G1 X93.387 Y148.985 E9.59819
G1 X93.075 Y148.26 E9.62444
G1 X92.838 Y147.507 E9.65069
G1 X92.679 Y146.733 E9.67698
G1 X92.598 Y145.948 E9.70322
G1 X92.588 Y145.546 E9.7166
G1 X92.588 Y98.18 E11.292
G1 X80.388 Y98.18 E11.69777
G1 X79.599 Y98.14 E11.72405
G1 X78.819 Y98.021 E11.75029
G1 X78.054 Y97.823 E11.77657
G1 X77.314 Y97.549 E11.80282
G1 X76.605 Y97.201 E11.82909
G1 X75.934 Y96.783 E11.85538
G1 X75.31 Y96.3 E11.88163
G1 X74.737 Y95.757 E11.90788
G1 X74.222 Y95.158 E11.93416
G1 X73.771 Y94.51 E11.96042
G1 X73.387 Y93.819 E11.98671
G1 X73.075 Y93.094 E12.01296
G1 X72.838 Y92.341 E12.03922
G1 X72.679 Y91.567 E12.0655
G1 X72.598 Y90.782 E12.09174
G1 X72.588 Y90.38 E12.10512
G1 X72.588 Y83.38 E12.33794
G0 F6000 X72.988 Y83.38
G1 F1200 X73.028 Y82.612 E12.36352
G1 X73.147 Y81.852 E12.3891
G1 X73.345 Y81.109 E12.41468
G1 X73.619 Y80.39 E12.44027
G1 X73.966 Y79.704 E12.46584
G1 X74.382 Y79.057 E12.49142
G1 X74.863 Y78.457 E12.517
G1 X75.404 Y77.91 E12.54259
G1 X75.999 Y77.422 E12.56818
G1 X76.641 Y76.999 E12.59376
G1 X77.324 Y76.644 E12.61936
G1 X78.039 Y76.363 E12.64491
G1 X78.781 Y76.157 E12.67052
G1 X79.539 Y76.029 E12.69609
G1 X80.388 Y75.98 E12.72437
G1 X99.034 Y75.98 E13.34454
G1 X99.746 Y76.017 E13.36826
G1 X100.388 Y75.98 E13.38964
G1 X162.554 Y75.98 E15.45729
G1 X163.322 Y76.02 E15.48287
G1 X164.082 Y76.139 E15.50846
G1 X164.825 Y76.337 E15.53403
G1 X165.544 Y76.611 E15.55962
G1 X166.23 Y76.958 E15.58519
G1 X166.877 Y77.374 E15.61078
G1 X167.477 Y77.855 E15.63635
G1 X168.024 Y78.396 E15.66194
G1 X168.512 Y78.991 E15.68754
G1 X168.935 Y79.633 E15.71311
G1 X169.29 Y80.316 E15.73871
G1 X169.571 Y81.031 E15.76426
G1 X169.777 Y81.773 E15.78987
G1 X169.905 Y82.531 E15.81544
G1 X169.954 Y83.38 E15.84373
G1 X169.954 Y145.546 E17.91138
G1 X169.917 Y146.258 E17.93509
G1 X169.954 Y146.901 E17.95651
G1 X169.954 Y165.546 E18.57665
G1 X169.914 Y166.314 E18.60223
G1 X169.795 Y167.074 E18.62781
G1 X169.597 Y167.817 E18.65339
G1 X169.323 Y168.536 E18.67898
G1 X168.976 Y169.222 E18.70455
G1 X168.56 Y169.869 E18.73013
G1 X168.079 Y170.469 E18.75571
G1 X167.538 Y171.016 E18.7813
G1 X166.943 Y171.504 E18.80689
G1 X166.301 Y171.927 E18.83246
G1 X165.618 Y172.282 E18.85806
G1 X164.903 Y172.563 E18.88362
G1 X164.161 Y172.769 E18.90923
G1 X163.403 Y172.897 E18.9348
G1 X162.554 Y172.946 E18.96308
G1 X155.554 Y172.946 E19.1959
G1 X154.786 Y172.906 E19.22148
G1 X154.026 Y172.787 E19.24707
G1 X153.283 Y172.589 E19.27264
G1 X152.564 Y172.315 E19.29823
G1 X151.878 Y171.968 E19.3238
G1 X151.231 Y171.552 E19.34939
G1 X150.631 Y171.071 E19.37496
G1 X150.084 Y170.53 E19.40055
G1 X149.596 Y169.935 E19.42615
G1 X149.173 Y169.293 E19.45172
G1 X148.818 Y168.61 E19.47732
G1 X148.537 Y167.895 E19.50287
G1 X148.331 Y167.153 E19.52848
G1 X148.203 Y166.395 E19.55405
G1 X148.154 Y165.546 E19.58234
G1 X148.154 Y152.946 E20.00141
G1 X100.388 Y152.946 E21.59012
G1 X99.62 Y152.906 E21.6157
G1 X98.86 Y152.787 E21.64128
G1 X98.117 Y152.589 E21.66686
G1 X97.398 Y152.315 E21.69245
G1 X96.712 Y151.968 E21.71802
G1 X96.065 Y151.552 E21.7436
G1 X95.465 Y151.071 E21.76918
G1 X94.918 Y150.53 E21.79477
G1 X94.43 Y149.935 E21.82036
G1 X94.007 Y149.293 E21.84593
G1 X93.652 Y148.61 E21.87153
G1 X93.371 Y147.895 E21.89709
G1 X93.165 Y147.153 E21.9227
G1 X93.037 Y146.395 E21.94827
G1 X92.988 Y145.546 E21.97655
G1 X92.988 Y97.78 E23.56525
G1 X80.388 Y97.78 E23.98433
G1 X79.62 Y97.74 E24.00991
G1 X78.86 Y97.621 E24.0355
G1 X78.117 Y97.423 E24.06107
G1 X77.398 Y97.149 E24.08666
G1 X76.712 Y96.802 E24.11223
G1 X76.065 Y96.386 E24.13782
G1 X75.465 Y95.905 E24.16339
G1 X74.918 Y95.364 E24.18898
G1 X74.43 Y94.769 E24.21458
G1 X74.007 Y94.127 E24.24015
G1 X73.652 Y93.444 E24.26575
G1 X73.371 Y92.729 E24.2913
G1 X73.165 Y91.987 E24.31691
G1 X73.037 Y91.229 E24.34248
G1 X72.988 Y90.38 E24.37077
G1 X72.988 Y83.38 E24.60359
G0 F6000 X73.388 Y83.38
G1 F1200 X73.428 Y82.633 E24.62847
G1 X73.547 Y81.895 E24.65333
G1 X73.745 Y81.173 E24.67823
G1 X74.018 Y80.477 E24.7031
G1 X74.365 Y79.814 E24.72799
G1 X74.78 Y79.191 E24.75288
G1 X75.259 Y78.617 E24.77775
G1 X75.796 Y78.096 E24.80263
G1 X76.386 Y77.637 E24.8275
G1 X77.022 Y77.242 E24.8524
G1 X77.696 Y76.918 E24.87727
G1 X78.401 Y76.668 E24.90215
G1 X79.129 Y76.494 E24.92705
G1 X79.871 Y76.399 E24.95193
G1 X80.388 Y76.38 E24.96913
G1 X99.034 Y76.38 E25.5893
G1 X99.729 Y76.417 E25.61245
G1 X99.871 Y76.399 E25.61721
G1 X100.388 Y76.38 E25.63442
G1 X162.554 Y76.38 E27.70207
G1 X163.301 Y76.42 E27.72695
G1 X164.039 Y76.539 E27.75181
G1 X164.761 Y76.737 E27.77671
G1 X165.457 Y77.01 E27.80158
G1 X166.12 Y77.357 E27.82647
G1 X166.743 Y77.772 E27.85136
G1 X167.317 Y78.251 E27.87623
G1 X167.838 Y78.788 E27.90112
G1 X168.297 Y79.378 E27.92598
G1 X168.692 Y80.014 E27.95088
G1 X169.016 Y80.688 E27.97575
G1 X169.266 Y81.393 E28.00063
G1 X169.44 Y82.121 E28.02553
G1 X169.535 Y82.863 E28.05041
G1 X169.554 Y83.38 E28.06761
G1 X169.554 Y145.546 E30.13526
G1 X169.517 Y146.242 E30.15845
G1 X169.535 Y146.384 E30.16321
G1 X169.554 Y146.901 E30.18041
G1 X169.554 Y165.546 E30.80055
G1 X169.514 Y166.293 E30.82543
G1 X169.395 Y167.031 E30.85029
G1 X169.197 Y167.753 E30.87519
G1 X168.924 Y168.449 E30.90006
G1 X168.577 Y169.112 E30.92495
G1 X168.162 Y169.735 E30.94985
G1 X167.683 Y170.309 E30.97471
G1 X167.146 Y170.83 E30.9996
G1 X166.556 Y171.289 E31.02446
G1 X165.92 Y171.684 E31.04936
G1 X165.246 Y172.008 E31.07423
G1 X164.541 Y172.258 E31.09911
G1 X163.813 Y172.432 E31.12401
G1 X163.071 Y172.527 E31.14889
G1 X162.554 Y172.546 E31.1661
G1 X155.554 Y172.546 E31.39892
G1 X154.807 Y172.506 E31.4238
G1 X154.069 Y172.387 E31.44866
G1 X153.347 Y172.189 E31.47356
G1 X152.651 Y171.916 E31.49843
G1 X151.988 Y171.569 E31.52332
G1 X151.365 Y171.154 E31.54821
G1 X150.791 Y170.675 E31.57308
G1 X150.27 Y170.138 E31.59796
G1 X149.811 Y169.548 E31.62283
G1 X149.416 Y168.912 E31.64773
G1 X149.092 Y168.238 E31.6726
G1 X148.842 Y167.533 E31.69748
G1 X148.668 Y166.805 E31.72238
G1 X148.573 Y166.063 E31.74726
G1 X148.554 Y165.546 E31.76446
G1 X148.554 Y152.546 E32.19684
G1 X100.388 Y152.546 E33.79885
G1 X99.641 Y152.506 E33.82373
G1 X98.903 Y152.387 E33.8486
G1 X98.181 Y152.189 E33.8735
G1 X97.485 Y151.916 E33.89836
G1 X96.822 Y151.569 E33.92325
G1 X96.199 Y151.154 E33.94815
G1 X95.625 Y150.675 E33.97302
G1 X95.104 Y150.138 E33.9979
G1 X94.645 Y149.548 E34.02276
G1 X94.25 Y148.912 E34.04766
G1 X93.926 Y148.238 E34.07254
G1 X93.676 Y147.533 E34.09742
G1 X93.502 Y146.805 E34.12231
G1 X93.407 Y146.063 E34.14719
G1 X93.388 Y145.546 E34.1644
G1 X93.388 Y97.38 E35.76641
G1 X80.388 Y97.38 E36.19879
G1 X79.641 Y97.34 E36.22367
G1 X78.903 Y97.221 E36.24853
G1 X78.181 Y97.023 E36.27343
G1 X77.485 Y96.75 E36.2983
G1 X76.822 Y96.403 E36.32319
G1 X76.199 Y95.988 E36.34809
G1 X75.625 Y95.509 E36.37295
G1 X75.104 Y94.972 E36.39784
G1 X74.645 Y94.382 E36.4227
G1 X74.25 Y93.746 E36.4476
G1 X73.926 Y93.072 E36.47247
G1 X73.676 Y92.367 E36.49735
G1 X73.502 Y91.639 E36.52225
G1 X73.407 Y90.897 E36.54713
G1 X73.388 Y90.38 E36.56434
G1 X73.388 Y83.38 E36.79716
G0 F6000 X73.788 Y83.38
G1 F1200 X73.828 Y82.655 E36.82131
G1 X73.947 Y81.938 E36.84548
G1 X74.145 Y81.239 E36.86964
G1 X74.418 Y80.566 E36.8938
G1 X74.763 Y79.927 E36.91795
G1 X75.177 Y79.33 E36.94212
G1 X75.653 Y78.782 E36.96626
G1 X76.187 Y78.289 E36.99043
G1 X76.772 Y77.859 E37.01458
G1 X77.401 Y77.495 E37.03875
G1 X78.066 Y77.202 E37.06292
G1 X78.759 Y76.984 E37.08708
G1 X79.471 Y76.844 E37.11122
G1 X80.388 Y76.78 E37.14179
G1 X99.034 Y76.78 E37.76196
G1 X99.776 Y76.823 E37.78668
G1 X100.388 Y76.78 E37.80709
G1 X162.554 Y76.78 E39.87473
G1 X163.279 Y76.82 E39.89889
G1 X163.996 Y76.939 E39.92306
G1 X164.695 Y77.137 E39.94722
G1 X165.368 Y77.41 E39.97138
G1 X166.007 Y77.755 E39.99553
G1 X166.604 Y78.169 E40.01969
G1 X167.152 Y78.645 E40.04384
G1 X167.645 Y79.179 E40.06801
G1 X168.075 Y79.764 E40.09216
G1 X168.439 Y80.393 E40.11633
G1 X168.732 Y81.058 E40.1405
G1 X168.95 Y81.751 E40.16466
G1 X169.09 Y82.463 E40.1888
G1 X169.154 Y83.38 E40.21937
G1 X169.154 Y145.546 E42.28702
G1 X169.111 Y146.288 E42.31174
G1 X169.154 Y146.901 E42.33218
G1 X169.154 Y165.546 E42.95231
G1 X169.114 Y166.271 E42.97646
G1 X168.995 Y166.988 E43.00064
G1 X168.797 Y167.687 E43.0248
G1 X168.524 Y168.36 E43.04896
G1 X168.179 Y168.999 E43.07311
G1 X167.765 Y169.596 E43.09727
G1 X167.289 Y170.144 E43.12142
G1 X166.755 Y170.637 E43.14559
G1 X166.17 Y171.067 E43.16974
G1 X165.541 Y171.431 E43.19391
G1 X164.876 Y171.724 E43.21808
G1 X164.183 Y171.942 E43.24224
G1 X163.471 Y172.082 E43.26637
G1 X162.554 Y172.146 E43.29695
G1 X155.554 Y172.146 E43.52977
G1 X154.829 Y172.106 E43.55392
G1 X154.112 Y171.987 E43.57809
G1 X153.413 Y171.789 E43.60226
G1 X152.74 Y171.516 E43.62641
G1 X152.101 Y171.171 E43.65057
G1 X151.504 Y170.757 E43.67473
G1 X150.956 Y170.281 E43.69887
G1 X150.463 Y169.747 E43.72304
G1 X150.033 Y169.162 E43.74719
G1 X149.669 Y168.533 E43.77136
G1 X149.376 Y167.868 E43.79553
G1 X149.158 Y167.175 E43.8197
G1 X149.018 Y166.463 E43.84383
G1 X148.954 Y165.546 E43.8744
G1 X148.954 Y152.146 E44.32009
G1 X100.388 Y152.146 E45.9354
G1 X99.663 Y152.106 E45.95955
G1 X98.946 Y151.987 E45.98373
G1 X98.247 Y151.789 E46.00789
G1 X97.574 Y151.516 E46.03205
G1 X96.935 Y151.171 E46.0562
G1 X96.338 Y150.757 E46.08036
G1 X95.79 Y150.281 E46.1045
G1 X95.297 Y149.747 E46.12868
G1 X94.867 Y149.162 E46.15282
G1 X94.503 Y148.533 E46.177
G1 X94.21 Y147.868 E46.20117
G1 X93.992 Y147.175 E46.22533
G1 X93.852 Y146.463 E46.24946
G1 X93.788 Y145.546 E46.28004
G1 X93.788 Y96.98 E47.89535
G1 X80.388 Y96.98 E48.34103
G1 X79.663 Y96.94 E48.36518
G1 X78.946 Y96.821 E48.38936
G1 X78.247 Y96.623 E48.41352
G1 X77.574 Y96.35 E48.43768
G1 X76.935 Y96.005 E48.46183
G1 X76.338 Y95.591 E48.48599
G1 X75.79 Y95.115 E48.51014
G1 X75.297 Y94.581 E48.53431
G1 X74.867 Y93.996 E48.55846
G1 X74.503 Y93.367 E48.58263
G1 X74.21 Y92.702 E48.6068
G1 X73.992 Y92.009 E48.63096
G1 X73.852 Y91.297 E48.6551
G1 X73.788 Y90.38 E48.68567
G1 X73.788 Y83.38 E48.91849
G0 F6000 X74.188 Y83.38
G1 F1200 X74.228 Y82.677 E48.94191
G1 X74.347 Y81.983 E48.96533
G1 X74.545 Y81.308 E48.98873
G1 X74.817 Y80.659 E49.01213
G1 X75.162 Y80.045 E49.03556
G1 X75.573 Y79.474 E49.05896
G1 X76.047 Y78.953 E49.08238
G1 X76.577 Y78.489 E49.10581
G1 X77.156 Y78.089 E49.12922
G1 X77.777 Y77.757 E49.15264
G1 X78.431 Y77.497 E49.17605
G1 X79.111 Y77.313 E49.19948
G1 X79.807 Y77.207 E49.22289
G1 X80.388 Y77.18 E49.24224
G1 X99.034 Y77.18 E49.86241
G1 X99.726 Y77.219 E49.88546
G1 X99.807 Y77.207 E49.88818
G1 X100.388 Y77.18 E49.90753
G1 X162.554 Y77.18 E51.97518
G1 X163.257 Y77.22 E51.9986
G1 X163.951 Y77.339 E52.02202
G1 X164.626 Y77.537 E52.04541
G1 X165.275 Y77.809 E52.06882
G1 X165.889 Y78.154 E52.09224
G1 X166.46 Y78.565 E52.11564
G1 X166.981 Y79.039 E52.13907
G1 X167.445 Y79.569 E52.1625
G1 X167.845 Y80.148 E52.1859
G1 X168.177 Y80.769 E52.20932
G1 X168.437 Y81.423 E52.23273
G1 X168.621 Y82.103 E52.25616
G1 X168.727 Y82.799 E52.27958
G1 X168.754 Y83.38 E52.29892
G1 X168.754 Y145.546 E54.36657
G1 X168.715 Y146.239 E54.38966
G1 X168.727 Y146.32 E54.39238
G1 X168.754 Y146.901 E54.41173
G1 X168.754 Y165.546 E55.03186
G1 X168.714 Y166.249 E55.05528
G1 X168.595 Y166.943 E55.0787
G1 X168.397 Y167.618 E55.1021
G1 X168.125 Y168.267 E55.1255
G1 X167.78 Y168.881 E55.14893
G1 X167.369 Y169.452 E55.17233
G1 X166.895 Y169.973 E55.19575
G1 X166.365 Y170.437 E55.21918
G1 X165.786 Y170.837 E55.24259
G1 X165.165 Y171.169 E55.26601
G1 X164.511 Y171.429 E55.28942
G1 X163.831 Y171.613 E55.31285
G1 X163.135 Y171.719 E55.33627
G1 X162.554 Y171.746 E55.35561
G1 X155.554 Y171.746 E55.58843
G1 X154.851 Y171.706 E55.61185
G1 X154.157 Y171.587 E55.63527
G1 X153.482 Y171.389 E55.65867
G1 X152.833 Y171.117 E55.68207
G1 X152.219 Y170.772 E55.7055
G1 X151.648 Y170.361 E55.7289
G1 X151.127 Y169.887 E55.75232
G1 X150.663 Y169.357 E55.77575
G1 X150.263 Y168.778 E55.79916
G1 X149.931 Y168.157 E55.82258
G1 X149.671 Y167.503 E55.84599
G1 X149.487 Y166.823 E55.86942
G1 X149.381 Y166.127 E55.89283
G1 X149.354 Y165.546 E55.91218
G1 X149.354 Y151.746 E56.37117
G1 X100.388 Y151.746 E57.99978
G1 X99.685 Y151.706 E58.0232
G1 X98.991 Y151.587 E58.04662
G1 X98.316 Y151.389 E58.07002
G1 X97.667 Y151.117 E58.09342
G1 X97.053 Y150.772 E58.11685
G1 X96.482 Y150.361 E58.14025
G1 X95.961 Y149.887 E58.16368
G1 X95.497 Y149.357 E58.1871
G1 X95.097 Y148.778 E58.21051
G1 X94.765 Y148.157 E58.23393
G1 X94.505 Y147.503 E58.25734
G1 X94.321 Y146.823 E58.28077
G1 X94.215 Y146.127 E58.30419
G1 X94.188 Y145.546 E58.32353
